-----BEGIN PGP SIGNATURE-----

iQJJBAABCgAzFiEEYQF0dUB+NesmCL8r8urq7jRPdXYFAmrKQrMVHGdyZWVuQG1v
eGllbG9naWMuY29tAAoJEPLq6u40T3V2h9MQAJJZU4sGXNJL8oDzLV5nv2yRfbDP
HHM0v1WbgFXpMlKigsTPutJq6GItA2UbLjsQ38wZ63gDiuaMjwAFnquZtnYAPyeH
Zi0lZnFQFQzQAoDRc71YnpMPk3Ik/PRSR8SVv45W7KpFoABqmoTHPBIrGQeykDVX
UdgTc0SdK4SdJ4YNFXI1yii8ABOMyPcQXGmKzNW+D0kFpN+LrTLv4VfA1jDCqyRh
KDOzzGq9Bip2y6fminpa1D7AbwFRqiVx2UThypc+vBN9z75Fh192HD/YmtnL8aDm
4pfeMvYswOsJNoO1jR/DL6xJ1uK8YchXWZNIgWPDcHDipOSI0sxkB5lcvUEuzeps
gSz5Zkt3rgu4Tu3GV0bcZ2O+qfzMPYP2iaMmzg15wnb5NntUDZCYYDI44X8ig/Z2
qUlkXxLo4XrDj3M0FccJzHkE2MhwWfnezqGDGlv4+HgYSuIk6AjdtOhaHb0NDRNv
QabUg/4UXzuSl9H/4TB+ihXfa7Wf/V4b06QLk1cwgCcQ+qu4XVu5+dMCJClr6jnJ
3U1n5GaSCGxJelC6b9Oa9dMnQBRlnZ0L1/nA1wb+xZ7W/NNhheDpp7sgQtKHPfmR
ukbmCeWRuaD5kVl7s1+qgCJ21gVhWtEecYqBdyNUgLZAU1EuEaqbF07QA7IjZP26
qz1znqwzSEbfd0r2
=IO/R
-----END PGP SIGNATURE-----
